swiss/communes/6286.svg

<?xml version="1.0" encoding="UTF-8" standalone="no"?>
<svg
   xmlns:dc="http://purl.org/dc/elements/1.1/"
   xmlns:cc="http://creativecommons.org/ns#"
   xmlns:rdf="http://www.w3.org/1999/02/22-rdf-syntax-ns#"
   xmlns:svg="http://www.w3.org/2000/svg"
   xmlns="http://www.w3.org/2000/svg"
   xmlns:xlink="http://www.w3.org/1999/xlink"
   xmlns:sodipodi="http://sodipodi.sourceforge.net/DTD/sodipodi-0.dtd"
   xmlns:inkscape="http://www.inkscape.org/namespaces/inkscape"
   height="763"
   width="603"
   version="1.0"
   id="svg20"
   sodipodi:version="0.32"
   inkscape:version="0.46"
   sodipodi:docname="Lalden-coat of arms.svg"
   sodipodi:docbase="C:\Users\Camilo\Documents\Escudos de Suiza"
   inkscape:output_extension="org.inkscape.output.svg.inkscape">
  <metadata
     id="metadata31">
    <rdf:RDF>
      <cc:Work
         rdf:about="">
        <dc:format>image/svg+xml</dc:format>
        <dc:type
           rdf:resource="http://purl.org/dc/dcmitype/StillImage" />
        <dc:date>23-MAY-2010</dc:date>
        <dc:creator>
          <cc:Agent>
            <dc:title>Aliman5040</dc:title>
          </cc:Agent>
        </dc:creator>
        <cc:license
           rdf:resource="http://creativecommons.org/licenses/GPL/2.0/" />
        <dc:coverage />
        <dc:description />
        <dc:subject>
          <rdf:Bag />
        </dc:subject>
        <dc:language />
        <dc:title>Wappen Gemeinde Lalden</dc:title>
      </cc:Work>
      <cc:License
         rdf:about="http://creativecommons.org/licenses/GPL/2.0/">
        <cc:permits
           rdf:resource="http://web.resource.org/cc/Reproduction" />
        <cc:permits
           rdf:resource="http://web.resource.org/cc/Distribution" />
        <cc:requires
           rdf:resource="http://web.resource.org/cc/Notice" />
        <cc:permits
           rdf:resource="http://web.resource.org/cc/DerivativeWorks" />
        <cc:requires
           rdf:resource="http://web.resource.org/cc/ShareAlike" />
        <cc:requires
           rdf:resource="http://web.resource.org/cc/SourceCode" />
      </cc:License>
    </rdf:RDF>
  </metadata>
  <defs
     id="defs29">
    <inkscape:perspective
       sodipodi:type="inkscape:persp3d"
       inkscape:vp_x="0 : 381.5 : 1"
       inkscape:vp_y="0 : 1000 : 0"
       inkscape:vp_z="603 : 381.5 : 1"
       inkscape:persp3d-origin="301.5 : 254.33333 : 1"
       id="perspective5149" />
    <linearGradient
       id="linearGradient2893">
      <stop
         style="stop-color:#ffffff;stop-opacity:0.3137255;"
         offset="0"
         id="stop2895" />
      <stop
         id="stop2897"
         offset="0.19"
         style="stop-color:#ffffff;stop-opacity:0.25098041;" />
      <stop
         style="stop-color:#6b6b6b;stop-opacity:0.1254902;"
         offset="0.60000002"
         id="stop2901" />
      <stop
         style="stop-color:#000000;stop-opacity:0.1254902;"
         offset="1"
         id="stop2899" />
    </linearGradient>
    <radialGradient
       inkscape:collect="always"
       xlink:href="#linearGradient2893"
       id="radialGradient3236"
       gradientUnits="userSpaceOnUse"
       gradientTransform="matrix(1.215027,1.531577e-24,1.464684e-23,1.266667,-839.1924,-490.4894)"
       cx="858.04236"
       cy="579.93323"
       fx="858.04236"
       fy="579.93323"
       r="300" />
    <inkscape:perspective
       id="perspective5197"
       inkscape:persp3d-origin="372.04724 : 350.78739 : 1"
       inkscape:vp_z="744.09448 : 526.18109 : 1"
       inkscape:vp_y="0 : 1000 : 0"
       inkscape:vp_x="0 : 526.18109 : 1"
       sodipodi:type="inkscape:persp3d" />
  </defs>
  <sodipodi:namedview
     inkscape:window-height="720"
     inkscape:window-width="1280"
     inkscape:pageshadow="2"
     inkscape:pageopacity="0.0"
     guidetolerance="10.0"
     gridtolerance="10.0"
     objecttolerance="10.0"
     borderopacity="1.0"
     bordercolor="#666666"
     pagecolor="#ffffff"
     id="base"
     inkscape:zoom="0.47449367"
     inkscape:cx="255.75012"
     inkscape:cy="456.64133"
     inkscape:window-x="-8"
     inkscape:window-y="-8"
     inkscape:current-layer="layer2"
     showgrid="true"
     showguides="true">
    <inkscape:grid
       type="xygrid"
       id="grid5151"
       visible="true"
       enabled="true" />
  </sodipodi:namedview>
  <g
     inkscape:groupmode="layer"
     id="layer1"
     inkscape:label="Fond écu"
     style="display:inline"
     sodipodi:insensitive="true">
    <path
       id="path1899"
       d="M 1.5,1.49998 L 1.5,460.3679 C 1.5,626.6785 135.81456,761.5 301.49999,761.5 C 467.18543,761.5 601.5,626.6785 601.5,460.3679 L 601.5,1.49998 L 1.5,1.49998 z"
       style="fill:#e20909;fill-opacity:1" />
  </g>
  <g
     inkscape:groupmode="layer"
     id="layer2"
     inkscape:label="Meubles"
     style="display:inline"
     sodipodi:insensitive="true">
    <path
       style="opacity:1;fill:#ffffff;fill-opacity:1;fill-rule:nonzero;stroke:#000000;stroke-width:3.25666809;stroke-linecap:butt;stroke-linejoin:miter;stroke-miterlimit:4;stroke-dasharray:none;stroke-opacity:1"
       d="M 269.78125,233 L 269.78125,315.1875 L 187.71875,315.1875 L 187.71875,381.40625 L 269.78125,381.40625 L 269.78125,627.75 L 331.21875,627.75 L 331.21875,381.40625 L 415.28125,381.40625 L 415.28125,315.1875 L 331.21875,315.1875 L 331.21875,233 L 269.78125,233 z"
       id="rect7363"
       sodipodi:nodetypes="ccccccccccccc" />
    <g
       style="display:inline"
       id="g22296"
       transform="translate(0.9662623,-0.6018825)">
      <path
         id="path18329"
         d="M 300.59375,554.8125 C 264.8368,555.23099 228.20049,571.98077 214.625,603.8125 C 144.14101,534.87644 71.95887,603.93794 76.9375,660.03125 C 131.89738,722.26689 212.12984,761.5 301.5,761.5 C 388.97232,761.5 467.69459,723.91907 522.53125,663.96875 C 537.88721,605.97325 454.30923,532.03091 381.25,603.8125 C 371.21935,570.30679 336.3507,554.39401 300.59375,554.8125 z"
         style="fill:#5ab532;fill-opacity:1;fill-rule:evenodd;stroke:#050000;stroke-width:4.20376492px;stroke-linecap:butt;stroke-linejoin:miter;stroke-opacity:1" />
      <path
         sodipodi:nodetypes="cc"
         id="path20352"
         d="M 214.69176,603.37647 C 192.3926,659.14182 253.73999,738.21925 298.69882,761.15059"
         style="fill:none;fill-rule:evenodd;stroke:#000000;stroke-width:4;stroke-linecap:butt;stroke-linejoin:miter;stroke-miterlimit:4;stroke-dasharray:none;stroke-opacity:1" />
      <path
         style="fill:none;fill-rule:evenodd;stroke:#000000;stroke-width:4;stroke-linecap:butt;stroke-linejoin:miter;stroke-miterlimit:4;stroke-dasharray:none;stroke-opacity:1"
         d="M 381.27722,603.37647 C 398.49504,663.71246 344.84445,737.78334 299.88562,760.71468"
         id="path22294"
         sodipodi:nodetypes="cc" />
    </g>
    <path
       sodipodi:type="star"
       style="opacity:1;fill:#fcef3c;fill-opacity:1;fill-rule:nonzero;stroke:#000000;stroke-width:2.27450824;stroke-linecap:butt;stroke-linejoin:miter;stroke-miterlimit:4;stroke-dasharray:none;stroke-opacity:1"
       id="path7368"
       sodipodi:sides="6"
       sodipodi:cx="300"
       sodipodi:cy="83"
       sodipodi:r1="70.491135"
       sodipodi:r2="25.794699"
       sodipodi:arg1="0.55258435"
       sodipodi:arg2="1.0761831"
       inkscape:flatsided="false"
       inkscape:rounded="0"
       inkscape:randomized="0"
       d="M 360,120 L 312.24452,105.70327 L 297.95706,153.46152 L 286.46065,104.9557 L 237.95706,116.46152 L 274.21614,82.252431 L 240,46 L 287.75548,60.296735 L 302.04294,12.538475 L 313.53935,61.044304 L 362.04294,49.538476 L 325.78386,83.747569 L 360,120 z"
       transform="matrix(1.3032892,-3.7543206e-2,3.6685077e-2,1.3337754,-94.476921,10.656701)" />
    <path
       transform="matrix(1.3032892,-3.7543206e-2,3.6685077e-2,1.3337754,-274.10928,117.61615)"
       d="M 360,120 L 312.24452,105.70327 L 297.95706,153.46152 L 286.46065,104.9557 L 237.95706,116.46152 L 274.21614,82.252431 L 240,46 L 287.75548,60.296735 L 302.04294,12.538475 L 313.53935,61.044304 L 362.04294,49.538476 L 325.78386,83.747569 L 360,120 z"
       inkscape:randomized="0"
       inkscape:rounded="0"
       inkscape:flatsided="false"
       sodipodi:arg2="1.0761831"
       sodipodi:arg1="0.55258435"
       sodipodi:r2="25.794699"
       sodipodi:r1="70.491135"
       sodipodi:cy="83"
       sodipodi:cx="300"
       sodipodi:sides="6"
       id="path7374"
       style="opacity:1;fill:#fcef3c;fill-opacity:1;fill-rule:nonzero;stroke:#000000;stroke-width:2.27450824;stroke-linecap:butt;stroke-linejoin:miter;stroke-miterlimit:4;stroke-dasharray:none;stroke-opacity:1"
       sodipodi:type="star" />
    <path
       sodipodi:type="star"
       style="opacity:1;fill:#fcef3c;fill-opacity:1;fill-rule:nonzero;stroke:#000000;stroke-width:2.27450824;stroke-linecap:butt;stroke-linejoin:miter;stroke-miterlimit:4;stroke-dasharray:none;stroke-opacity:1"
       id="path7376"
       sodipodi:sides="6"
       sodipodi:cx="300"
       sodipodi:cy="83"
       sodipodi:r1="70.491135"
       sodipodi:r2="25.794699"
       sodipodi:arg1="0.55258435"
       sodipodi:arg2="1.0761831"
       inkscape:flatsided="false"
       inkscape:rounded="0"
       inkscape:randomized="0"
       d="M 360,120 L 312.24452,105.70327 L 297.95706,153.46152 L 286.46065,104.9557 L 237.95706,116.46152 L 274.21614,82.252431 L 240,46 L 287.75548,60.296735 L 302.04294,12.538475 L 313.53935,61.044304 L 362.04294,49.538476 L 325.78386,83.747569 L 360,120 z"
       transform="matrix(1.3032892,-3.7543206e-2,3.6685077e-2,1.3337754,83.89072,117.61615)" />
  </g>
  <g
     inkscape:groupmode="layer"
     id="layer3"
     inkscape:label="Reflet final"
     style="display:inline"
     sodipodi:insensitive="true">
    <path
       style="fill:url(#radialGradient3236);fill-opacity:1"
       d="M 1.5,1.5 L 1.5,460.3679 C 1.5,626.67854 135.81454,761.5 301.49993,761.5 C 467.1854,761.5 601.5,626.67854 601.5,460.3679 L 601.5,1.5 L 1.5,1.5 z "
       id="path2346" />
  </g>
  <g
     inkscape:groupmode="layer"
     id="layer4"
     inkscape:label="Contour final"
     style="display:inline"
     sodipodi:insensitive="true">
    <path
       style="fill:none;fill-opacity:1;stroke:#000000;stroke-width:3;stroke-miterlimit:4;stroke-dasharray:none;stroke-opacity:1"
       d="M 1.5,1.5 L 1.5,460.36794 C 1.5,626.67854 135.81454,761.5 301.49993,761.5 C 467.1854,761.5 601.5,626.67854 601.5,460.36794 L 601.5,1.5 L 1.5,1.5 z "
       id="path3239" />
  </g>
</svg>

<svg xmlns="http://www.w3.org/2000/svg" xmlns:xlink="http://www.w3.org/1999/xlink" height="763" width="603" version="1.0"><defs><radialGradient xlink:href="#a" id="b" gradientUnits="userSpaceOnUse" gradientTransform="matrix(1.21503 0 0 1.26667 -839.192 -490.49)" cx="858.042" cy="579.933" fx="858.042" fy="579.933" r="300"/><linearGradient id="a"><stop style="stop-color:#fff;stop-opacity:.3137255" offset="0"/><stop offset=".19" style="stop-color:#fff;stop-opacity:.25098041"/><stop style="stop-color:#6b6b6b;stop-opacity:.1254902" offset=".6"/><stop style="stop-color:#000;stop-opacity:.1254902" offset="1"/></linearGradient></defs><g style="display:inline"><path d="M1.5 1.5v458.868c0 166.31 134.315 301.132 300 301.132s300-134.822 300-301.132V1.5H1.5z" style="fill:#e20909;fill-opacity:1"/></g><g style="display:inline"><path style="opacity:1;fill:#fff;fill-opacity:1;fill-rule:nonzero;stroke:#000;stroke-width:3.25666809;stroke-linecap:butt;stroke-linejoin:miter;stroke-miterlimit:4;stroke-dasharray:none;stroke-opacity:1" d="M269.781 233v82.188H187.72v66.218h82.062V627.75h61.438V381.406h84.062v-66.219H331.22V233H269.78z"/><g style="display:inline"><path d="M300.594 554.813c-35.757.418-72.394 17.168-85.969 49-70.484-68.937-142.666.125-137.688 56.218C131.898 722.267 212.13 761.5 301.5 761.5c87.472 0 166.195-37.58 221.031-97.531 15.356-57.996-68.222-131.938-141.281-60.157-10.03-33.505-44.9-49.418-80.656-49z" style="fill:#5ab532;fill-opacity:1;fill-rule:evenodd;stroke:#050000;stroke-width:4.20376492px;stroke-linecap:butt;stroke-linejoin:miter;stroke-opacity:1" transform="translate(.966 -.602)"/><path d="M214.692 603.376c-22.3 55.766 39.048 134.843 84.007 157.775M381.277 603.376c17.218 60.336-36.433 134.407-81.391 157.339" style="fill:none;fill-rule:evenodd;stroke:#000;stroke-width:4;stroke-linecap:butt;stroke-linejoin:miter;stroke-miterlimit:4;stroke-dasharray:none;stroke-opacity:1" transform="translate(.966 -.602)"/></g><path style="opacity:1;fill:#fcef3c;fill-opacity:1;fill-rule:nonzero;stroke:#000;stroke-width:2.27450824;stroke-linecap:butt;stroke-linejoin:miter;stroke-miterlimit:4;stroke-dasharray:none;stroke-opacity:1" d="m360 120-47.755-14.297-14.288 47.759-11.496-48.506-48.504 11.506 36.26-34.21L240 46l47.755 14.297 14.288-47.759 11.496 48.506 48.504-11.506-36.26 34.21L360 120z" transform="matrix(1.30329 -.03754 .03669 1.33378 -94.477 10.657)"/><path transform="matrix(1.30329 -.03754 .03669 1.33378 -274.11 117.616)" d="m360 120-47.755-14.297-14.288 47.759-11.496-48.506-48.504 11.506 36.26-34.21L240 46l47.755 14.297 14.288-47.759 11.496 48.506 48.504-11.506-36.26 34.21L360 120z" style="opacity:1;fill:#fcef3c;fill-opacity:1;fill-rule:nonzero;stroke:#000;stroke-width:2.27450824;stroke-linecap:butt;stroke-linejoin:miter;stroke-miterlimit:4;stroke-dasharray:none;stroke-opacity:1"/><path style="opacity:1;fill:#fcef3c;fill-opacity:1;fill-rule:nonzero;stroke:#000;stroke-width:2.27450824;stroke-linecap:butt;stroke-linejoin:miter;stroke-miterlimit:4;stroke-dasharray:none;stroke-opacity:1" d="m360 120-47.755-14.297-14.288 47.759-11.496-48.506-48.504 11.506 36.26-34.21L240 46l47.755 14.297 14.288-47.759 11.496 48.506 48.504-11.506-36.26 34.21L360 120z" transform="matrix(1.30329 -.03754 .03669 1.33378 83.89 117.616)"/></g><g style="display:inline"><path style="fill:url(#b);fill-opacity:1" d="M1.5 1.5v458.868c0 166.31 134.315 301.132 300 301.132s300-134.821 300-301.132V1.5H1.5z"/></g><g style="display:inline"><path style="fill:none;fill-opacity:1;stroke:#000;stroke-width:3;stroke-miterlimit:4;stroke-dasharray:none;stroke-opacity:1" d="M1.5 1.5v458.868c0 166.31 134.315 301.132 300 301.132s300-134.821 300-301.132V1.5H1.5z"/></g></svg>
